X: 35044
T: Rolling Grey Waves, The
R: jig
M: 6/8
K: Gmajor
|:EFG c3|BAG AFD|EFG cdc|BAG A3|
EFG c3|BAG AFD|ded cBA|1 G3 AFD:|2 G3 AB/c/d||
|:ede =f3|edc dBG|ede =f3|edc d3|
ede =f3|edc dBG|ded cBA|1 G3 AB/c/d:|2 G3 AFD||

